images/foodservice-icon.svg

<?xml version="1.0" encoding="UTF-8"?>
<svg width="141px" height="127px" viewBox="0 0 141 127" version="1.1" xmlns="http://www.w3.org/2000/svg" xmlns:xlink="http://www.w3.org/1999/xlink">
    <!-- Generator: Sketch 61.2 (89653) - https://sketch.com -->
    <title>tray</title>
    <desc>Created with Sketch.</desc>
    <g id="Page-1" stroke="none" stroke-width="1" fill="none" fill-rule="evenodd">
        <g id="Desktop-HD" transform="translate(-1078.000000, -2286.000000)" fill="#4E2164" fill-rule="nonzero">
            <g id="segments" transform="translate(103.000000, 2072.000000)">
                <g id="tray" transform="translate(975.000000, 214.000000)">
                    <path d="M47.491412,64.974146 C47.5838305,63.4701798 47.676249,61.9639975 47.873655,60.4426722 C48.2385232,56.8356649 49.0226018,53.2138839 49.8236854,49.6907175 C50.3112854,47.9333818 50.8395496,46.197468 51.3936909,44.5003353 C52.102356,42.8438303 52.7958644,41.1961895 53.4875245,39.5869605 C55.0530939,36.4456952 56.8035004,33.5105234 58.8928979,31.0536514 C59.3890004,30.4205969 59.8806668,29.8071175 60.3619824,29.1914221 C60.9116877,28.6422086 61.4617626,28.1099848 61.9918751,27.577761 C63.1108784,26.5672375 64.0812726,25.4728732 65.1984275,24.67029 C67.4249741,23.0226493 69.3949669,21.4562641 71.4004484,20.4863684 C73.3334738,19.4089938 74.991092,18.4738164 76.4856841,17.9460247 C79.4149809,16.7681887 81.077405,16.1761313 81.077405,16.1761313 C81.077405,16.1761313 79.6597051,17.3004125 77.1817802,19.1242301 C75.9015991,19.9589461 74.5445258,21.2763938 72.9294201,22.6259745 C71.245555,23.9131361 69.7210193,25.7583756 67.9085077,27.5267916 C67.002067,28.4302055 66.2982077,29.5651976 65.4409336,30.61007 C65.024311,31.1422938 64.5969679,31.6785804 64.1563165,32.2237312 C63.7999507,32.8246528 63.4306464,33.4274212 63.0569059,34.0431166 C61.4569568,36.4120849 60.2610614,39.1928711 59.0148903,42.0142851 C58.5036312,43.4905505 57.9864572,44.9882378 57.4578234,46.5006989 C57.0970215,48.073363 56.6977736,49.6630168 56.2619279,51.2467611 C55.6068656,54.5014149 54.9647418,57.821073 54.6874863,61.2345444 C54.4945165,62.4725834 54.402098,63.7213333 54.2860204,64.9785781 C81.433401,64.9830102 102.444932,65 131.845476,65 C131.944179,63.712469 132,62.4079483 132,61.0971487 C132,36.3581608 113.955842,15.9829647 90.7366172,13.2838034 C92.2356453,11.8828841 93.1849682,9.89581676 93.1849682,7.68566607 C93.1934707,3.43747869 89.7488482,0 85.5053603,0 C81.2574362,0 77.8087474,3.43747869 77.8087474,7.68566607 C77.8087474,9.90024888 78.7536341,11.8825147 80.2567287,13.2838034 C57.0393524,15.9829647 39,36.3581608 39,61.0971487 C39,62.4038855 39.0469486,63.6910471 39.1438032,64.9745153 C42.0109948,64.974146 44.7791138,64.974146 47.491412,64.974146 Z" id="Path"></path>
                    <rect id="Rectangle" x="31" y="68" width="110" height="10"></rect>
                    <path d="M95.6930235,84.3902602 C90.0984136,87.078961 70.5911211,94.0388989 70.5911211,94.0388989 L47.5320008,92.6097829 C47.5320008,92.6097829 60.7218072,88.9807875 65.8348699,87.8449642 C70.9568157,86.7131688 68.7289655,81 65.8970528,81 C63.0655102,81 38.3870437,82.0080339 38.3870437,82.0080339 L22,87.8449642 L26.3368868,115 C26.3368868,115 29.710679,109.286465 33.0759581,109.286465 C36.4538219,109.286465 65.7123547,110.056496 69.6839171,109.286465 C73.6577002,108.507646 97.8609117,92.1286508 100.759449,90.2184027 C103.645031,88.3169424 101.309471,81.6975317 95.6930235,84.3902602 Z" id="Path"></path>
                    <polygon id="Path" points="0 91.320981 0 127 25 122.286493 18.7457615 88"></polygon>
                </g>
            </g>
        </g>
    </g>
</svg>

<svg width="141" height="127" xmlns="http://www.w3.org/2000/svg"><path d="M47.491 64.974c.093-1.504.185-3.01.383-4.531.365-3.607 1.149-7.23 1.95-10.752a120.838 120.838 0 011.57-5.19c.708-1.657 1.402-3.305 2.094-4.914 1.565-3.141 3.316-6.076 5.405-8.533.496-.633.988-1.247 1.469-1.863.55-.549 1.1-1.081 1.63-1.613 1.119-1.01 2.09-2.105 3.206-2.908 2.227-1.647 4.197-3.214 6.202-4.184 1.933-1.077 3.591-2.012 5.086-2.54 2.929-1.178 4.591-1.77 4.591-1.77s-1.417 1.124-3.895 2.948c-1.28.835-2.637 2.152-4.253 3.502-1.683 1.287-3.208 3.132-5.02 4.9-.907.904-1.61 2.04-2.468 3.084-.417.532-.844 1.069-1.285 1.614-.356.6-.725 1.203-1.1 1.82-1.599 2.368-2.795 5.149-4.041 7.97-.511 1.477-1.029 2.974-1.557 4.487-.361 1.572-.76 3.162-1.196 4.746-.655 3.254-1.297 6.574-1.575 9.988-.192 1.238-.285 2.486-.401 3.744 27.147.004 48.159.021 77.56.021.098-1.288.154-2.592.154-3.903 0-24.739-18.044-45.114-41.263-47.813a7.647 7.647 0 002.448-5.598C93.193 3.437 89.749 0 85.505 0c-4.248 0-7.696 3.437-7.696 7.686 0 2.214.945 4.197 2.448 5.598C57.039 15.983 39 36.358 39 61.097c0 1.307.047 2.594.144 3.878h8.347zM31 68h110v10H31zm64.693 16.39c-5.595 2.689-25.102 9.649-25.102 9.649l-23.059-1.43s13.19-3.628 18.303-4.764c5.122-1.132 2.894-6.845.062-6.845-2.831 0-27.51 1.008-27.51 1.008L22 87.845 26.337 115s3.374-5.714 6.739-5.714c3.378 0 32.636.77 36.608 0 3.974-.778 28.177-17.157 31.075-19.068 2.886-1.901.55-8.52-5.066-5.828zM0 91.321V127l25-4.714L18.746 88z" fill="#4E2164"/></svg>
